X:555
T:Paddy-Wack Jig
M:6/8
L:1/8
Z:abc by Bruce Osborne - bosborne@kos.net
K:A
E|Ace aga|fed cdB|Ace fga|gee efg|!
aba aec|dfa ecA|Ace fdB|BAA A2:|!
|:c/d/|ecc fcc|ecA B2 A|Ace fga|gee efg|!
aba aec|dfa ecA|Ace fdB|BAA A2:|!
